vendor/shopware/storefront/Resources/app/storefront/dist/assets/icon/default/align-left.svg

<svg xmlns="http://www.w3.org/2000/svg" width="24" height="24" viewBox="0 0 24 24">
  <path fill="#758CA3" fill-rule="evenodd" d="M8,5 C7.44771525,5 7,4.55228475 7,4 C7,3.44771525 7.44771525,3 8,3 L20,3 C20.5522847,3 21,3.44771525 21,4 C21,4.55228475 20.5522847,5 20,5 L8,5 Z M8,9 C7.44771525,9 7,8.55228475 7,8 C7,7.44771525 7.44771525,7 8,7 L17,7 C17.5522847,7 18,7.44771525 18,8 C18,8.55228475 17.5522847,9 17,9 L8,9 Z M8,13 C7.44771525,13 7,12.5522847 7,12 C7,11.4477153 7.44771525,11 8,11 L19,11 C19.5522847,11 20,11.4477153 20,12 C20,12.5522847 19.5522847,13 19,13 L8,13 Z M8,17 C7.44771525,17 7,16.5522847 7,16 C7,15.4477153 7.44771525,15 8,15 L20,15 C20.5522847,15 21,15.4477153 21,16 C21,16.5522847 20.5522847,17 20,17 L8,17 Z M8,21 C7.44771525,21 7,20.5522847 7,20 C7,19.4477153 7.44771525,19 8,19 L17,19 C17.5522847,19 18,19.4477153 18,20 C18,20.5522847 17.5522847,21 17,21 L8,21 Z M3,3 C3,2.44771525 3.44771525,2 4,2 C4.55228475,2 5,2.44771525 5,3 L5,21 C5,21.5522847 4.55228475,22 4,22 C3.44771525,22 3,21.5522847 3,21 L3,3 Z"/>
</svg>

<svg xmlns="http://www.w3.org/2000/svg" width="24" height="24" viewBox="0 0 24 24"><path fill="#758CA3" fill-rule="evenodd" d="M8 5c-.5523 0-1-.4477-1-1s.4477-1 1-1h12c.5523 0 1 .4477 1 1s-.4477 1-1 1H8zm0 4c-.5523 0-1-.4477-1-1s.4477-1 1-1h9c.5523 0 1 .4477 1 1s-.4477 1-1 1H8zm0 4c-.5523 0-1-.4477-1-1s.4477-1 1-1h11c.5523 0 1 .4477 1 1s-.4477 1-1 1H8zm0 4c-.5523 0-1-.4477-1-1s.4477-1 1-1h12c.5523 0 1 .4477 1 1s-.4477 1-1 1H8zm0 4c-.5523 0-1-.4477-1-1s.4477-1 1-1h9c.5523 0 1 .4477 1 1s-.4477 1-1 1H8zM3 3c0-.5523.4477-1 1-1s1 .4477 1 1v18c0 .5523-.4477 1-1 1s-1-.4477-1-1V3z"/></svg>
